public/images/icons/re-icons/re-link-circle.svg

<svg width="20" height="21" viewBox="0 0 20 21" fill="none" xmlns="http://www.w3.org/2000/svg">
<g id="Group 2836">
<circle id="Ellipse 271" cx="10" cy="10.5" r="10" fill="#0084FF"/>
<path id="Union" fill-rule="evenodd" clip-rule="evenodd" d="M10 5.5C8.82157 5.5 8 6.36702 8 7.27778V8.5C8 9.05229 7.55228 9.5 7 9.5C6.44772 9.5 6 9.05229 6 8.5V7.27778C6 5.12029 7.86472 3.5 10 3.5C12.1353 3.5 14 5.12029 14 7.27778V8.5C14 9.05229 13.5523 9.5 13 9.5C12.4477 9.5 12 9.05229 12 8.5V7.27778C12 6.36702 11.1784 5.5 10 5.5ZM10 15.5C11.1784 15.5 12 14.633 12 13.7222V12.5C12 11.9477 12.4477 11.5 13 11.5C13.5523 11.5 14 11.9477 14 12.5V13.7222C14 15.8797 12.1353 17.5 10 17.5C7.86472 17.5 6 15.8797 6 13.7222V12.5C6 11.9477 6.44772 11.5 7 11.5C7.55229 11.5 8 11.9477 8 12.5V13.7222C8 14.633 8.82157 15.5 10 15.5ZM9 12.8333C9 13.3856 9.44772 13.8333 10 13.8333C10.5523 13.8333 11 13.3856 11 12.8333L11 8.16667C11 7.61438 10.5523 7.16667 10 7.16667C9.44772 7.16667 9 7.61438 9 8.16667L9 12.8333Z" fill="white"/>
</g>
</svg>

<svg fill="none" viewBox="0 0 20 21"><circle cx="10" cy="10.5" r="10" fill="#0084FF"/><path fill="#fff" fill-rule="evenodd" d="M10 5.5c-1.178 0-2 .867-2 1.778V8.5a1 1 0 11-2 0V7.278C6 5.12 7.865 3.5 10 3.5s4 1.62 4 3.778V8.5a1 1 0 11-2 0V7.278c0-.911-.822-1.778-2-1.778zm0 10c1.178 0 2-.867 2-1.778V12.5a1 1 0 112 0v1.222c0 2.158-1.865 3.778-4 3.778s-4-1.62-4-3.778V12.5a1 1 0 112 0v1.222c0 .911.822 1.778 2 1.778zm-1-2.667a1 1 0 102 0V8.167a1 1 0 10-2 0v4.666z" clip-rule="evenodd"/></svg>
